
; generated by SuperSlicer 2.7.61.0 on 2025-04-28 at 20:23:27 UTC


;
;

;
;
; 

; external perimeters extrusion width = 0.42mm
; perimeters extrusion width = 0.40mm
; infill extrusion width = 0.40mm
; solid infill extrusion width = 0.60mm
; top infill extrusion width = 0.40mm
; support material extrusion width = 0.40mm
; support material interface extrusion width = 0.40mm
; first layer extrusion width = 0.40mm

M204 S5000 ; sets acceleration (P, T), mm/sec^2

; object:{"name":"micron_test_cube_stl_id_0_copy_0","id":"0","object_id":0,"copy":0,"object_center":[86.500,90.000,0.000],"boundingbox_center":[86.500,90.000,15.000],"boundingbox_size":[30.000,30.000,30.000],"scale":[1.000,1.000,1.000],"outline":[[101.500,105.000],[71.500,105.000],[71.500,75.000],[101.500,75.000]]}
; plater:{,"object_center":[86.500,90.000,0.000],"boundingbox_center":[86.500,90.000,15.000],"boundingbox_size":[30.000,30.000,30.000],"outline":[[71.500,75.000],[101.500,75.000],[101.500,105.000],[71.500,105.000]]}
M107
;TYPE:Custom
; custom gcode: start_gcode
; custom gcode end: start_gcode
G21 ; set units to millimeters
G90 ; use absolute coordinates
M83 ; use relative distances for extrusion
; custom gcode: start_filament_gcode
;Filament gcode
; custom gcode end: start_filament_gcode
;LAYER_CHANGE
;Z:0.2
;HEIGHT:0.2
G1 E-.5 F3600
G1 Z.2 F18000
G92 E0
M204 S5000
G1 X76.314 Y73.914
G1 E.5 F2700
;TYPE:Skirt/Brim
;WIDTH:0.4
G1 F4800
G1 X76.905 Y73.546 E.01942
G1 X77.4 Y73.464 E.01398
G1 X95.6 Y73.464 E.50758
G1 X96.278 Y73.622 E.01943
G1 X96.686 Y73.914 E.01398
G1 X102.586 Y79.814 E.2327
G1 X102.954 Y80.405 E.01942
G1 X103.036 Y80.9 E.01398
G1 X103.036 Y99.1 E.50758
G1 X102.878 Y99.778 E.01942
G1 X102.586 Y100.186 E.01398
G1 X96.686 Y106.086 E.23271
G1 X96.095 Y106.454 E.01942
G1 X95.6 Y106.536 E.01398
G1 X77.4 Y106.536 E.50758
G1 X76.722 Y106.378 E.01942
G1 X76.314 Y106.086 E.01398
G1 X70.414 Y100.186 E.23271
G1 X70.046 Y99.595 E.01942
G1 X69.964 Y99.1 E.01398
G1 X69.964 Y80.9 E.50758
G1 X70.122 Y80.222 E.01942
G1 X70.414 Y79.814 E.01398
G1 X76.272 Y73.957 E.23103
G1 E-.5 F3600
G1 X76.567 Y74.167 F18000
G1 E.5 F2700
G1 F4800
G1 X77.094 Y73.862 E.01698
G1 X95.6 Y73.821 E.51612
G1 X96.188 Y73.979 E.01698
G1 X102.333 Y80.067 E.24125
G1 X102.638 Y80.594 E.01698
G1 X102.679 Y99.1 E.51612
G1 X102.521 Y99.688 E.01698
G1 X96.433 Y105.833 E.24125
G1 X95.906 Y106.138 E.01698
G1 X77.4 Y106.179 E.51612
G1 X76.812 Y106.021 E.01698
G1 X70.667 Y99.933 E.24124
G1 X70.362 Y99.406 E.01699
G1 X70.321 Y80.9 E.51612
G1 X70.479 Y80.312 E.01698
G1 X76.524 Y74.209 E.23957
G1 E-.5 F3600
; printing object micron_test_cube_stl_id_0_copy_0
G1 X86.394 Y99.481 F18000
G1 E.5 F2700
;TYPE:Perimeter
G1 F6000
G1 X86.841 Y99.476 E.01248
G1 X87.295 Y99.449 E.01268
G1 X87.747 Y99.4 E.01268
G1 X88.196 Y99.329 E.01268
G1 X88.642 Y99.237 E.01269
G1 X89.082 Y99.124 E.01268
G1 X89.517 Y98.99 E.01268
G1 X89.944 Y98.835 E.01269
G1 X90.364 Y98.659 E.01268
G1 X90.774 Y98.464 E.01268
G1 X91.175 Y98.249 E.01268
G1 X91.565 Y98.016 E.01268
G1 X91.944 Y97.764 E.01269
G1 X92.31 Y97.494 E.01268
G1 X92.663 Y97.207 E.01268
G1 X93.001 Y96.903 E.01269
G1 X93.324 Y96.583 E.01268
G1 X93.632 Y96.249 E.01268
G1 X93.924 Y95.899 E.01268
G1 X94.198 Y95.537 E.01269
G1 X94.455 Y95.161 E.01268
G1 X94.693 Y94.774 E.01268
G1 X94.912 Y94.376 E.01268
G1 X95.112 Y93.967 E.01269
G1 X95.293 Y93.55 E.01268
G1 X95.453 Y93.124 E.01268
G1 X95.592 Y92.691 E.01269
G1 X95.711 Y92.252 E.01268
G1 X95.808 Y91.808 E.01268
G1 X95.884 Y91.36 E.01268
G1 X95.939 Y90.908 E.01269
G1 X95.971 Y90.455 E.01268
G1 X95.982 Y90 E.01268
G1 X95.971 Y89.545 E.01268
G1 X95.939 Y89.092 E.01269
G1 X95.884 Y88.64 E.01268
G1 X95.808 Y88.192 E.01268
G1 X95.711 Y87.748 E.01268
G1 X95.592 Y87.309 E.01269
G1 X95.453 Y86.876 E.01268
G1 X95.293 Y86.45 E.01268
G1 X95.112 Y86.033 E.01269
G1 X94.912 Y85.624 E.01268
G1 X94.693 Y85.226 E.01268
G1 X94.455 Y84.839 E.01268
G1 X94.198 Y84.463 E.01269
G1 X93.924 Y84.101 E.01268
G1 X93.632 Y83.751 E.01268
G1 X93.324 Y83.417 E.01268
G1 X93.001 Y83.097 E.01269
G1 X92.663 Y82.793 E.01268
G1 X92.31 Y82.506 E.01268
G1 X91.944 Y82.236 E.01268
G1 X91.565 Y81.984 E.01269
G1 X91.175 Y81.751 E.01268
G1 X90.774 Y81.536 E.01268
G1 X90.364 Y81.341 E.01269
G1 X89.944 Y81.165 E.01268
G1 X89.517 Y81.01 E.01268
G1 X89.082 Y80.876 E.01268
G1 X88.642 Y80.763 E.01269
G1 X88.196 Y80.671 E.01268
G1 X87.747 Y80.6 E.01268
G1 X87.295 Y80.551 E.01268
G1 X86.841 Y80.524 E.01269
G1 X86.386 Y80.518 E.01268
G1 X85.932 Y80.535 E.01268
G1 X85.479 Y80.573 E.01269
G1 X85.028 Y80.633 E.01268
G1 X84.58 Y80.714 E.01268
G1 X84.137 Y80.817 E.01268
G1 X83.7 Y80.941 E.01269
G1 X83.269 Y81.085 E.01268
G1 X82.845 Y81.25 E.01268
G1 X82.43 Y81.436 E.01268
G1 X82.024 Y81.641 E.01269
G1 X81.628 Y81.865 E.01268
G1 X81.244 Y82.108 E.01268
G1 X80.871 Y82.369 E.01269
G1 X80.512 Y82.648 E.01268
G1 X80.166 Y82.943 E.01268
G1 X79.835 Y83.255 E.01268
G1 X79.52 Y83.582 E.01269
G1 X79.22 Y83.924 E.01268
G1 X78.937 Y84.28 E.01268
G1 X78.672 Y84.65 E.01268
G1 X78.424 Y85.031 E.01269
G1 X78.195 Y85.424 E.01268
G1 X77.985 Y85.827 E.01268
G1 X77.795 Y86.24 E.01269
G1 X77.625 Y86.662 E.01268
G1 X77.475 Y87.091 E.01268
G1 X77.346 Y87.528 E.01268
G1 X77.238 Y87.969 E.01269
G1 X77.151 Y88.416 E.01268
G1 X77.086 Y88.866 E.01268
G1 X77.042 Y89.318 E.01268
G1 X77.02 Y89.773 E.01269
G1 X77.02 Y90.227 E.01268
G1 X77.042 Y90.682 E.01268
G1 X77.086 Y91.134 E.01268
G1 X77.151 Y91.584 E.01269
G1 X77.238 Y92.031 E.01268
G1 X77.346 Y92.473 E.01268
G1 X77.475 Y92.909 E.01269
G1 X77.625 Y93.338 E.01268
G1 X77.795 Y93.76 E.01268
G1 X77.985 Y94.173 E.01268
G1 X78.195 Y94.576 E.01269
G1 X78.424 Y94.969 E.01268
G1 X78.672 Y95.35 E.01268
G1 X78.937 Y95.72 E.01268
G1 X79.22 Y96.076 E.01269
G1 X79.52 Y96.418 E.01268
G1 X79.835 Y96.745 E.01268
G1 X80.166 Y97.057 E.01268
G1 X80.512 Y97.352 E.01269
G1 X80.871 Y97.631 E.01268
G1 X81.244 Y97.892 E.01268
G1 X81.628 Y98.135 E.01269
G1 X82.024 Y98.359 E.01268
G1 X82.43 Y98.564 E.01268
G1 X82.845 Y98.75 E.01268
G1 X83.269 Y98.915 E.01269
G1 X83.7 Y99.059 E.01268
G1 X84.137 Y99.183 E.01268
G1 X85.028 Y99.367 E.02536
G1 X86.334 Y99.48 E.03655
G1 E-.5 F3600
G1 X86.262 Y99.12 F18000
G1 E.5 F2700
;TYPE:External perimeter
G1 F6000
G1 X86.391 Y99.124 E.00359
G1 X86.828 Y99.119 E.01221
G1 X87.265 Y99.093 E.0122
G1 X87.7 Y99.046 E.01221
G1 X88.132 Y98.978 E.0122
G1 X88.561 Y98.889 E.01221
G1 X88.985 Y98.78 E.0122
G1 X89.403 Y98.651 E.01221
G1 X89.814 Y98.502 E.0122
G1 X90.218 Y98.333 E.01221
G1 X90.613 Y98.145 E.0122
G1 X90.999 Y97.939 E.01221
G1 X91.375 Y97.714 E.0122
G1 X91.739 Y97.471 E.01221
G1 X92.091 Y97.212 E.0122
G1 X92.43 Y96.935 E.01221
G1 X92.756 Y96.643 E.0122
G1 X93.067 Y96.335 E.01221
G1 X93.364 Y96.013 E.0122
G1 X93.644 Y95.677 E.01221
G1 X93.908 Y95.328 E.0122
G1 X94.155 Y94.967 E.01221
G1 X94.384 Y94.594 E.0122
G1 X94.595 Y94.211 E.01221
G1 X94.788 Y93.818 E.0122
G1 X94.962 Y93.416 E.01221
G1 X95.116 Y93.006 E.0122
G1 X95.25 Y92.59 E.01221
G1 X95.364 Y92.167 E.0122
G1 X95.458 Y91.74 E.01221
G1 X95.531 Y91.308 E.0122
G1 X95.583 Y90.874 E.01221
G1 X95.615 Y90.438 E.0122
G1 X95.625 Y90 E.01221
G1 X95.615 Y89.562 E.0122
G1 X95.583 Y89.126 E.01221
G1 X95.531 Y88.692 E.0122
G1 X95.458 Y88.26 E.01221
G1 X95.364 Y87.833 E.0122
G1 X95.25 Y87.41 E.01221
G1 X95.116 Y86.994 E.0122
G1 X94.962 Y86.584 E.01221
G1 X94.788 Y86.182 E.0122
G1 X94.595 Y85.789 E.01221
G1 X94.384 Y85.406 E.0122
G1 X94.155 Y85.033 E.01221
G1 X93.908 Y84.672 E.0122
G1 X93.644 Y84.323 E.01221
G1 X93.364 Y83.987 E.0122
G1 X93.067 Y83.665 E.01221
G1 X92.756 Y83.357 E.0122
G1 X92.43 Y83.065 E.01221
G1 X92.091 Y82.788 E.0122
G1 X91.739 Y82.529 E.01221
G1 X91.375 Y82.286 E.0122
G1 X90.999 Y82.061 E.01221
G1 X90.613 Y81.855 E.0122
G1 X90.218 Y81.667 E.01221
G1 X89.814 Y81.498 E.0122
G1 X89.403 Y81.349 E.01221
G1 X88.985 Y81.22 E.0122
G1 X88.561 Y81.111 E.01221
G1 X88.132 Y81.022 E.0122
G1 X87.7 Y80.954 E.01221
G1 X87.265 Y80.907 E.0122
G1 X86.828 Y80.881 E.01221
G1 X86.391 Y80.876 E.0122
G1 X85.953 Y80.891 E.01221
G1 X85.517 Y80.928 E.0122
G1 X85.083 Y80.986 E.01221
G1 X84.653 Y81.064 E.0122
G1 X84.226 Y81.163 E.01221
G1 X83.805 Y81.282 E.0122
G1 X83.39 Y81.421 E.0122
G1 X82.983 Y81.58 E.01221
G1 X82.583 Y81.758 E.0122
G1 X82.192 Y81.956 E.01221
G1 X81.812 Y82.171 E.0122
G1 X81.442 Y82.405 E.01221
G1 X81.083 Y82.656 E.0122
G1 X80.738 Y82.925 E.01221
G1 X80.405 Y83.209 E.0122
G1 X80.086 Y83.509 E.01221
G1 X79.783 Y83.824 E.0122
G1 X79.494 Y84.153 E.01221
G1 X79.222 Y84.496 E.0122
G1 X78.966 Y84.851 E.01221
G1 X78.728 Y85.218 E.0122
G1 X78.508 Y85.596 E.01221
G1 X78.306 Y85.985 E.0122
G1 X78.123 Y86.382 E.01221
G1 X77.959 Y86.788 E.0122
G1 X77.815 Y87.201 E.01221
G1 X77.691 Y87.621 E.0122
G1 X77.587 Y88.046 E.01221
G1 X77.503 Y88.475 E.0122
G1 X77.44 Y88.908 E.01221
G1 X77.399 Y89.344 E.0122
G1 X77.378 Y89.781 E.01221
G1 X77.378 Y90.219 E.0122
G1 X77.399 Y90.656 E.01221
G1 X77.44 Y91.092 E.0122
G1 X77.503 Y91.525 E.01221
G1 X77.587 Y91.954 E.0122
G1 X77.691 Y92.379 E.01221
G1 X77.815 Y92.799 E.0122
G1 X77.959 Y93.212 E.01221
G1 X78.123 Y93.618 E.0122
G1 X78.306 Y94.015 E.01221
G1 X78.508 Y94.404 E.0122
G1 X78.728 Y94.782 E.01221
G1 X78.966 Y95.149 E.0122
G1 X79.222 Y95.504 E.01221
G1 X79.494 Y95.847 E.0122
G1 X79.783 Y96.176 E.01221
G1 X80.086 Y96.491 E.0122
G1 X80.405 Y96.791 E.01221
G1 X80.738 Y97.075 E.0122
G1 X81.083 Y97.344 E.01221
G1 X81.442 Y97.595 E.0122
G1 X81.812 Y97.829 E.01221
G1 X82.192 Y98.044 E.0122
G1 X82.583 Y98.242 E.01221
G1 X82.983 Y98.42 E.0122
G1 X83.39 Y98.579 E.01221
G1 X83.805 Y98.718 E.0122
G1 X84.226 Y98.837 E.01221
G1 X85.083 Y99.014 E.0244
G1 X86.202 Y99.118 E.03133
;SEAM:86.262:99.12
;WIPE_START
G1 X86.37 Y99.324 F18000
;WIPE_END
G1 E-.5 F3600
G1 X77.299 Y104.112 F18000
G1 E.5 F2700
;TYPE:Perimeter
G1 F6000
G1 X72.057 Y98.869 E.20676
G1 X72.057 Y81.131 E.49471
G1 X77.631 Y75.557 E.21983
G1 X95.369 Y75.557 E.49471
G1 X100.943 Y81.131 E.21984
G1 X100.943 Y98.869 E.49471
G1 X95.369 Y104.443 E.21983
G1 X77.631 Y104.443 E.49471
G1 X77.342 Y104.154 E.01139
G1 E-.5 F3600
G1 X77.047 Y104.364 F18000
G1 E.5 F2700
;TYPE:External perimeter
G1 F6000
G1 X71.7 Y99.017 E.21089
G1 X71.7 Y80.983 E.50296
G1 X77.483 Y75.2 E.22808
G1 X95.517 Y75.2 E.50296
G1 X101.3 Y80.983 E.22808
G1 X101.3 Y99.017 E.50296
G1 X95.517 Y104.8 E.22808
G1 X77.483 Y104.8 E.50296
G1 X77.089 Y104.407 E.01552
;SEAM:77.047:104.364
;WIPE_START
G1 X77.107 Y104.141 F18000
;WIPE_END
G1 E-.5 F3600
G1 X72.128 Y88.499 F18000
G1 E.5 F2700
;TYPE:Solid infill
;WIDTH:0.378914
G1 F6000
G1 X78.053 Y94.423 E.22134
G1 X77.567 Y93.433 E.02913
G1 X72.282 Y88.147 E.19748
G1 X72.282 Y87.642 E.01334
G1 X77.122 Y92.483 E.18085
G1 X77.083 Y91.938 E.01441
G1 X72.282 Y87.137 E.17939
G1 X72.282 Y86.632 E.01334
G1 X77.044 Y91.394 E.17792
G1 X77.005 Y90.85 E.01441
G1 X72.282 Y86.127 E.17646
G1 X72.282 Y85.622 E.01334
G1 X76.966 Y90.306 E.175
G1 X76.927 Y89.762 E.01441
G1 X72.282 Y85.117 E.17353
G1 X72.282 Y84.612 E.01334
G1 X76.887 Y89.218 E.17207
G1 X76.86 Y88.842 E.00996
G1 X76.891 Y88.716 E.00341
G1 X72.282 Y84.107 E.1722
G1 X72.282 Y83.602 E.01334
G1 X76.99 Y88.311 E.17591
G1 X77.09 Y87.905 E.01104
G1 X72.282 Y83.097 E.17962
G1 X72.282 Y82.592 E.01334
G1 X77.189 Y87.499 E.18333
G1 X77.288 Y87.093 E.01103
G1 X72.282 Y82.087 E.18704
G1 X72.282 Y81.582 E.01334
G1 X77.387 Y86.688 E.19075
G1 X77.537 Y86.332 E.01019
G1 X72.355 Y81.151 E.19359
G1 X72.608 Y80.898 E.00943
G1 X77.703 Y85.993 E.19036
G1 X77.869 Y85.654 E.00997
G1 X72.86 Y80.646 E.18714
G1 X73.113 Y80.393 E.00943
G1 X78.035 Y85.315 E.1839
G1 X78.201 Y84.976 E.00997
G1 X73.365 Y80.141 E.18068
G1 X73.618 Y79.888 E.00943
G1 X78.427 Y84.697 E.17969
G1 X78.669 Y84.434 E.00944
G1 X73.87 Y79.636 E.17929
G1 X74.123 Y79.383 E.00943
G1 X78.911 Y84.171 E.17889
G1 X79.153 Y83.908 E.00945
G1 X74.375 Y79.131 E.17849
G1 X74.628 Y78.878 E.00944
G1 X79.395 Y83.645 E.1781
G1 X79.637 Y83.382 E.00944
G1 X74.88 Y78.626 E.1777
G1 X75.133 Y78.373 E.00944
G1 X79.878 Y83.119 E.17731
G1 X80.12 Y82.856 E.00944
G1 X75.385 Y78.121 E.17691
G1 X75.638 Y77.868 E.00943
G1 X80.362 Y82.593 E.17652
G1 X80.604 Y82.33 E.00944
G1 X75.89 Y77.616 E.17612
G1 X76.143 Y77.363 E.00943
G1 X80.892 Y82.112 E.17743
G1 X81.234 Y81.949 E.01001
G1 X76.395 Y77.111 E.18078
G1 X76.648 Y76.858 E.00944
G1 X81.576 Y81.787 E.18413
G1 X81.918 Y81.624 E.01001
G1 X76.9 Y76.606 E.1875
G1 X77.153 Y76.353 E.00943
G1 X82.261 Y81.461 E.19085
G1 X82.603 Y81.299 E.01001
G1 X77.405 Y76.101 E.1942
G1 X77.658 Y75.848 E.00943
G1 X82.945 Y81.136 E.19756
G1 X83.288 Y80.973 E.01001
G1 X78.096 Y75.782 E.19396
G1 X78.601 Y75.782 E.01334
G1 X83.63 Y80.811 E.18788
G1 X83.972 Y80.648 E.01001
G1 X79.106 Y75.782 E.1818
G1 X79.611 Y75.782 E.01334
G1 X84.406 Y80.577 E.17914
G1 X84.883 Y80.548 E.01261
G1 X80.116 Y75.782 E.17808
G1 X80.621 Y75.782 E.01334
G1 X85.359 Y80.52 E.177
G1 X85.835 Y80.491 E.01261
G1 X81.126 Y75.782 E.17594
G1 X81.631 Y75.782 E.01334
G1 X86.312 Y80.462 E.17487
G1 X86.788 Y80.434 E.01261
G1 X82.136 Y75.782 E.1738
G1 X82.641 Y75.782 E.01334
G1 X87.264 Y80.405 E.17273
G1 X87.741 Y80.377 E.01261
G1 X83.146 Y75.782 E.17166
G1 X83.651 Y75.782 E.01334
G1 X88.479 Y80.61 E.18039
G1 X89.239 Y80.865 E.02118
G1 X84.156 Y75.782 E.18992
G1 X84.661 Y75.782 E.01334
G1 X89.999 Y81.12 E.19944
G1 X90.759 Y81.375 E.02118
G1 X85.166 Y75.782 E.20898
G1 X85.671 Y75.782 E.01334
G1 X92.351 Y82.462 E.24956
G1 X94.095 Y83.954 E.06065
G1 X94.562 Y84.673 E.02266
G1 X100.718 Y90.829 E.22999
G1 X100.718 Y90.324 E.01334
G1 X86.176 Y75.782 E.54331
G1 X86.681 Y75.782 E.01334
G1 X100.718 Y89.819 E.52444
G1 X100.718 Y89.314 E.01334
G1 X87.186 Y75.782 E.50558
G1 X87.691 Y75.782 E.01334
G1 X100.718 Y88.809 E.48671
G1 X100.718 Y88.304 E.01334
G1 X88.196 Y75.782 E.46784
G1 X88.701 Y75.782 E.01334
G1 X100.718 Y87.799 E.44898
G1 X100.718 Y87.294 E.01334
G1 X89.206 Y75.782 E.4301
G1 X89.711 Y75.782 E.01335
G1 X100.718 Y86.789 E.41124
G1 X100.718 Y86.284 E.01334
G1 X90.216 Y75.782 E.39237
G1 X90.721 Y75.782 E.01334
G1 X100.718 Y85.779 E.37351
G1 X100.718 Y85.274 E.01334
G1 X91.226 Y75.782 E.35463
G1 X91.731 Y75.782 E.01335
G1 X100.718 Y84.769 E.33577
G1 X100.718 Y84.264 E.01334
G1 X92.236 Y75.782 E.3169
G1 X92.741 Y75.782 E.01334
G1 X100.718 Y83.759 E.29804
G1 X100.718 Y83.254 E.01334
G1 X93.246 Y75.782 E.27917
G1 X93.751 Y75.782 E.01334
G1 X100.718 Y82.749 E.2603
G1 X100.718 Y82.244 E.01334
G1 X94.256 Y75.782 E.24144
G1 X94.761 Y75.782 E.01334
G1 X100.718 Y81.739 E.22256
G1 X100.718 Y81.234 E.01335
G1 X95.112 Y75.628 E.20943
G1 E-.5 F3600
G1 X94.974 Y85.59 F18000
G1 E.5 F2700
G1 F6000
G1 X100.718 Y91.334 E.2146
G1 X100.718 Y91.839 E.01334
G1 X95.543 Y86.664 E.19334
G1 X95.847 Y87.473 E.02284
G1 X100.718 Y92.344 E.18197
G1 X100.718 Y92.849 E.01334
G1 X95.95 Y88.081 E.17813
G1 X95.976 Y88.612 E.01403
G1 X100.718 Y93.354 E.17717
G1 X100.718 Y93.859 E.01334
G1 X96.001 Y89.142 E.17623
G1 X96.027 Y89.673 E.01403
G1 X100.718 Y94.364 E.17527
G1 X100.718 Y94.869 E.01334
G1 X96.052 Y90.203 E.17432
G1 X96.078 Y90.733 E.01403
G1 X100.718 Y95.374 E.17338
G1 X100.718 Y95.879 E.01334
G1 X96.103 Y91.264 E.17242
G1 X96.109 Y91.389 E.00331
G1 X96.027 Y91.693 E.00831
G1 X100.718 Y96.384 E.17527
G1 X100.718 Y96.889 E.01334
G1 X95.92 Y92.09 E.17927
G1 X95.812 Y92.488 E.01088
G1 X100.718 Y97.394 E.1833
G1 X100.718 Y97.899 E.01334
G1 X95.705 Y92.885 E.1873
G1 X95.597 Y93.283 E.01088
G1 X100.718 Y98.404 E.19132
G1 X100.718 Y98.776 E.00984
G1 X100.652 Y98.842 E.00248
G1 X95.482 Y93.672 E.19316
